images/door.svg

<svg width="12" height="21" viewBox="0 0 12 21" fill="none" xmlns="http://www.w3.org/2000/svg">
<path d="M11.0823 10.1762C10.5724 10.1762 10.1591 10.5904 10.1591 11.1013V16.4207C10.1591 16.5484 10.0558 16.652 9.9283 16.652H7.62025C7.49278 16.652 7.38944 16.5484 7.38944 16.4207V3.98907C7.39077 3.46328 7.09406 2.98234 6.6241 2.7485L5.7138 2.2915C5.61215 2.24711 5.55661 2.13634 5.58174 2.02812C5.60687 1.9199 5.70551 1.84508 5.81628 1.85022H10.1554C10.6653 1.85022 11.0786 1.43603 11.0786 0.92511C11.0786 0.414186 10.6653 0 10.1554 0H0.923219C0.415838 0.00599379 0.0059816 0.416689 6.23877e-08 0.92511V17.2996C-0.000156972 17.8253 0.296148 18.3059 0.765349 18.5411L5.38144 20.8538C5.57341 20.9494 5.78474 20.9994 5.99908 21C6.7639 21 7.38391 20.3787 7.38391 19.6123V18.7418C7.38391 18.6141 7.48724 18.5105 7.61471 18.5105H10.6152C11.38 18.5105 12 17.8892 12 17.1229V11.1013C12 10.5926 11.59 10.1793 11.0823 10.1762Z" fill="#601CBA"/>
</svg>

<svg width="12" height="21" fill="none" xmlns="http://www.w3.org/2000/svg"><path d="M11.082 10.176a.924.924 0 0 0-.923.925v5.32a.231.231 0 0 1-.23.231H7.62a.231.231 0 0 1-.23-.231V3.989a1.381 1.381 0 0 0-.766-1.24l-.91-.458a.23.23 0 0 1 .102-.44h4.34a.924.924 0 0 0 0-1.851H.922A.935.935 0 0 0 0 .925V17.3c0 .525.296 1.006.765 1.241l4.616 2.313a1.386 1.386 0 0 0 2.002-1.241v-.871c0-.128.104-.232.232-.232h3c.765 0 1.385-.62 1.385-1.387V11.1a.924.924 0 0 0-.918-.925z" fill="#601CBA"/></svg>
